icons/commissions.svg

<svg width="18" height="19" viewBox="0 0 18 19" fill="none" xmlns="http://www.w3.org/2000/svg">
<path d="M14.3702 3.36793L14.732 4.45396C14.8433 4.79584 15.0663 5.09036 15.365 5.29019L16.2803 5.90561C16.5876 6.11196 16.8148 6.41754 16.9241 6.77133C17.0334 7.12511 17.0181 7.50571 16.8808 7.84959L16.519 8.72926C16.3616 9.11815 16.3616 9.55311 16.519 9.94199L16.8808 10.7999C17.0178 11.1369 17.0373 11.5102 16.9362 11.8596C16.8352 12.2091 16.6194 12.5142 16.3237 12.7258L15.5134 13.3195C15.215 13.5317 14.998 13.8395 14.8984 14.192L14.6053 15.2201C14.5033 15.581 14.2789 15.8951 13.9706 16.1085C13.6623 16.3219 13.2894 16.4212 12.9159 16.3893L12.0368 16.3169C11.6208 16.2823 11.2078 16.4123 10.8864 16.6789L10.0399 17.3631C9.75132 17.5987 9.39033 17.7273 9.01794 17.7273C8.64554 17.7273 8.28456 17.5987 7.99596 17.3631L7.27244 16.7695C6.98241 16.533 6.61914 16.405 6.24504 16.4074H4.95717C4.59175 16.4084 4.23688 16.2849 3.95089 16.0573C3.6649 15.8296 3.46481 15.5114 3.38352 15.1549L3.15199 14.1702C3.06833 13.7642 2.83114 13.4062 2.48997 13.1711L1.70856 12.6245C1.41108 12.4233 1.18932 12.1285 1.07855 11.7867C0.96777 11.445 0.974331 11.076 1.09719 10.7384L1.45895 9.74651C1.59279 9.38566 1.59279 8.98874 1.45895 8.6279L1.13336 7.75908C1.00688 7.41584 1.00063 7.03978 1.11565 6.69252C1.23067 6.34526 1.46013 6.04738 1.76644 5.84768L2.62382 5.29381C2.95531 5.07927 3.19715 4.75102 3.30393 4.37069L3.55716 3.45843C3.65863 3.0952 3.8837 2.77885 4.19349 2.56403C4.50328 2.34921 4.87832 2.24942 5.25382 2.28191L6.06416 2.35069C6.4811 2.38355 6.89459 2.25384 7.21818 1.98868L7.98873 1.36603C8.27818 1.12931 8.6405 1 9.01432 1C9.38814 1 9.75046 1.12931 10.0399 1.36603L10.7128 1.93076C11.0366 2.19818 11.4521 2.32813 11.8704 2.29277L12.7206 2.23123C13.0832 2.20768 13.4431 2.30702 13.7424 2.51324C14.0417 2.71947 14.2628 3.02055 14.3702 3.36793Z" stroke="#1B8CFF"/>
<path d="M6.81832 7.54547C7.62164 7.54547 8.27286 7.05705 8.27286 6.45456C8.27286 5.85206 7.62164 5.36365 6.81832 5.36365C6.01499 5.36365 5.36377 5.85206 5.36377 6.45456C5.36377 7.05705 6.01499 7.54547 6.81832 7.54547Z" stroke="#1B8CFF"/>
<path d="M11.1816 13.3636C11.9849 13.3636 12.6361 12.8752 12.6361 12.2727C12.6361 11.6702 11.9849 11.1818 11.1816 11.1818C10.3783 11.1818 9.72705 11.6702 9.72705 12.2727C9.72705 12.8752 10.3783 13.3636 11.1816 13.3636Z" stroke="#1B8CFF"/>
<path d="M12.6365 6.09094L5.36377 13.3637" stroke="#1B8CFF"/>
</svg>

<svg xmlns="http://www.w3.org/2000/svg" width="18" height="19" fill="none"><path stroke="#1B8CFF" d="m14.37 3.368.362 1.086c.111.342.334.636.633.836l.915.616a1.618 1.618 0 0 1 .6 1.944l-.361.88a1.616 1.616 0 0 0 0 1.212l.362.858a1.619 1.619 0 0 1-.557 1.926l-.81.593c-.299.213-.516.52-.616.873l-.293 1.028a1.614 1.614 0 0 1-1.69 1.17l-.878-.073a1.595 1.595 0 0 0-1.15.362l-.847.684a1.616 1.616 0 0 1-2.044 0l-.724-.593a1.61 1.61 0 0 0-1.027-.363H4.957a1.609 1.609 0 0 1-1.573-1.252l-.232-.985a1.607 1.607 0 0 0-.662-.999l-.781-.546a1.61 1.61 0 0 1-.612-1.887l.362-.991c.134-.361.134-.758 0-1.12l-.326-.868a1.616 1.616 0 0 1 .633-1.911l.858-.554c.331-.215.573-.543.68-.923l.253-.913a1.618 1.618 0 0 1 1.697-1.176l.81.069a1.62 1.62 0 0 0 1.154-.362l.77-.623a1.62 1.62 0 0 1 2.052 0l.673.565c.324.267.74.397 1.157.362l.85-.062a1.616 1.616 0 0 1 1.65 1.137Z"/><path stroke="#1B8CFF" d="M6.818 7.545c.804 0 1.455-.488 1.455-1.09 0-.603-.651-1.091-1.455-1.091-.803 0-1.454.488-1.454 1.09 0 .603.651 1.091 1.454 1.091ZM11.182 13.364c.803 0 1.454-.489 1.454-1.091 0-.603-.651-1.091-1.454-1.091-.804 0-1.455.488-1.455 1.09 0 .603.651 1.092 1.455 1.092ZM12.636 6.09l-7.272 7.274"/></svg>
